synths/sUSD.svg

<svg width="480" height="480" viewBox="0 0 480 480" fill="none" xmlns="http://www.w3.org/2000/svg"><mask id="mask0-911594" maskUnits="userSpaceOnUse" x="0" y="0" width="480" height="480"><circle cx="240" cy="240" r="240" fill="url(#paint0_linear-791375)"/></mask><g mask="url(#mask0-911594)"><circle cx="240" cy="240" r="240" fill="#31D8A4"/><circle cx="240" cy="240" r="208" fill="#fff"/></g><circle cx="240" cy="240" r="184" fill="#0E052F"/><path d="M233.84 323.04c-8-.64-15.52-2.4-22.56-5.28-7.04-3.04-13.12-6.96-18.24-11.76-5.12-4.8-9.2-10.32-12.24-16.56-3.04-6.24-4.64-13.04-4.8-20.4h29.52c.32 7.84 3.04 14.4 8.16 19.68 5.28 5.12 12 8.08 20.16 8.88v-47.52l-11.28-1.68c-12.96-1.76-23.28-6.64-30.96-14.64-7.52-8-11.28-18.16-11.28-30.48 0-6.4 1.44-12.4 4.32-18 2.88-5.76 6.8-10.8 11.76-15.12 4.96-4.48 10.64-8.08 17.04-10.8a69.36 69.36 0 0120.4-5.04V132h17.52v22.8c7.2.96 13.84 2.88 19.92 5.76 6.08 2.72 11.36 6.24 15.84 10.56s8 9.28 10.56 14.88c2.72 5.6 4.24 11.6 4.56 18h-29.52c-.32-5.76-2.48-10.72-6.48-14.88-3.84-4.32-8.8-7.28-14.88-8.88v43.92l8.16 1.2c6.08.96 11.84 2.64 17.28 5.04 5.44 2.4 10.16 5.52 14.16 9.36 4.16 3.84 7.36 8.48 9.6 13.92 2.4 5.28 3.6 11.28 3.6 18 0 7.2-1.36 13.76-4.08 19.68-2.56 5.76-6.24 10.88-11.04 15.36-4.64 4.32-10.24 7.92-16.8 10.8-6.4 2.72-13.36 4.48-20.88 5.28v24.72h-17.52v-24.48zm17.52-25.68c7.52-1.28 13.36-4 17.52-8.16 4.16-4.32 6.24-9.76 6.24-16.32 0-6.08-2-10.56-6-13.44-4-3.04-8.56-5.04-13.68-6l-4.08-.72v44.64zm-17.52-117.84c-6.72.96-12.48 3.44-17.28 7.44-4.64 3.84-6.96 9.04-6.96 15.6 0 5.6 1.52 9.84 4.56 12.72 3.2 2.72 7.36 4.48 12.48 5.28l7.2 1.2v-42.24z" fill="#fff"/><defs><linearGradient id="paint0_linear-791375" x1="240" y1="0" x2="240" y2="701.818" gradientUnits="userSpaceOnUse"><stop stop-color="#08021E"/><stop offset="1" stop-color="#1F0777"/></linearGradient></defs></svg>

<svg width="480" height="480" viewBox="0 0 480 480" fill="none" xmlns="http://www.w3.org/2000/svg">
<mask id="mask0-911594" mask-type="alpha" maskUnits="userSpaceOnUse" x="0" y="0" width="480" height="480">
<circle cx="240" cy="240" r="240" fill="url(#paint0_linear-791375)"/>
</mask>
<g mask="url(#mask0-911594)">
<circle cx="240" cy="240" r="240" fill="#31D8A4"/>
<circle cx="240" cy="240" r="208" fill="white"/>
</g>
<circle cx="240" cy="240" r="184" fill="#0E052F"/>
<path d="M233.84 323.04C225.84 322.4 218.32 320.64 211.28 317.76C204.24 314.72 198.16 310.8 193.04 306C187.92 301.2 183.84 295.68 180.8 289.44C177.76 283.2 176.16 276.4 176 269.04H205.52C205.84 276.88 208.56 283.44 213.68 288.72C218.96 293.84 225.68 296.8 233.84 297.6V250.08L222.56 248.4C209.6 246.64 199.28 241.76 191.6 233.76C184.08 225.76 180.32 215.6 180.32 203.28C180.32 196.88 181.76 190.88 184.64 185.28C187.52 179.52 191.44 174.48 196.4 170.16C201.36 165.68 207.04 162.08 213.44 159.36C220 156.64 226.8 154.96 233.84 154.32V132H251.36V154.8C258.56 155.76 265.2 157.68 271.28 160.56C277.36 163.28 282.64 166.8 287.12 171.12C291.6 175.44 295.12 180.4 297.68 186C300.4 191.6 301.92 197.6 302.24 204H272.72C272.4 198.24 270.24 193.28 266.24 189.12C262.4 184.8 257.44 181.84 251.36 180.24V224.16L259.52 225.36C265.6 226.32 271.36 228 276.8 230.4C282.24 232.8 286.96 235.92 290.96 239.76C295.12 243.6 298.32 248.24 300.56 253.68C302.96 258.96 304.16 264.96 304.16 271.68C304.16 278.88 302.8 285.44 300.08 291.36C297.52 297.12 293.84 302.24 289.04 306.72C284.4 311.04 278.8 314.64 272.24 317.52C265.84 320.24 258.88 322 251.36 322.8V347.52H233.84V323.04ZM251.36 297.36C258.88 296.08 264.72 293.36 268.88 289.2C273.04 284.88 275.12 279.44 275.12 272.88C275.12 266.8 273.12 262.32 269.12 259.44C265.12 256.4 260.56 254.4 255.44 253.44L251.36 252.72V297.36ZM233.84 179.52C227.12 180.48 221.36 182.96 216.56 186.96C211.92 190.8 209.6 196 209.6 202.56C209.6 208.16 211.12 212.4 214.16 215.28C217.36 218 221.52 219.76 226.64 220.56L233.84 221.76V179.52Z" fill="white"/>
<defs>
<linearGradient id="paint0_linear-791375" x1="240" y1="0" x2="240" y2="701.818" gradientUnits="userSpaceOnUse">
<stop stop-color="#08021E"/>
<stop offset="1" stop-color="#1F0777"/>
</linearGradient>
</defs>
</svg>
